X: 1
T: Lavinia's Polka
C:David A. Kaynor
R:Reel
M:C
K:D
|:"D"d2d2d2AG|F2 A2D2 DF|\
"A"EDEF GECE|"D"DEFGA2 Bc|
W: fine
"D"d2d2d2 AG|F2 A2D2 DF|\
"A"EDEF GECE|"D"D2F2D4 :|
K:A
|:"A"E2 CE AEAB|cAce a4 |\
"A"c'eac' "E"b2 bg|"D"afdf"A"e4|
"A"c'eac' "E"b2bg|"D"afdf "A"edcA|\
"Bm"Bcdf "E"e2G2|[1"A"A2A2A4:|\
[2 "A"A2A2A2Bc||
K:D
|:"D"d2d2d2AG| F2A2D2 DF|\
"A"EDEF GECE|"D"DEFG A2Bc|
"D"d2 d2d2 AG|F2 A2D2 DF|\
"A"EDEF GECE|"D"D2F2D4 :|
K:G
|:"G"G4G2AB|"D7"c2d2 "G"B4|\
"Am"ABcd efga|"D"bage dcB2|
"G"G4G2AB|"D7"c2d2"G"B4|\
"Am"ABcd "D"e2f2|"G"g8:|
W: d.c.al fine
W:For Lavinia Marie, June 13, 2003

%%sep 1 1 500

